X: 17
T: Missa Mi mi (Missa Petite camusette) / Kyrie
N: Derived from Ort1005a-Missa_Mi_mi-Kyrie-Missa_Petite_camusette.krn
C: Marbrianus de Orto
%%abc-version 2.0
%%abcx-abcm2ps-target-version 5.9.1 (29 Sep 2008)
%%abc-creator hum2abc beta
%%abcx-conversion-date 2019/02/17 07:28:37
%%abc-edited-by Jesse Rodin
%%abc-edited-by Jesse Rodin 8/9/2013
%%abcx-initial-encoding-date 2013/08/09/
%%humdrum-veritas 2875063109
%%humdrum-veritas-data 3671679191
%%linebreak <none>
%%barnumbers 0
L: 1/4
M: 3/1
Q: 1/2=120
%%staves [1 2 3 4]
V: 1 clef=treble
V: 2 clef=treble-8
V: 3 clef=treble-8
V: 4 clef=bass
K: C
[V:1] E3FG2A4G2 | 
[V:2] e3Ae2f2e4 | 
[V:3] z4z4E3F | 
[V:4] z12 | 
[V:1] E3DE2F2E4 | 
[V:2] z2c4d2c2B2- | 
[V:3] G2A4D2A2E2 | 
[V:4] z12 | 
[V:1] z2C2B,2A,2B,4 | 
[V:2] B2e4d2e4- | 
[V:3] G3AG2A4^G2 | 
[V:4] E,3A,,E,2F,2E,4 | 
[V:1] A,2C2B,2E4D2 | 
[V:2] e4z2B4A2 | 
[V:3] A2E4G2F4 | 
[V:4] z12 | 
[V:1] E2C4D4C2 | 
[V:2] B2GAG2A4G2 | 
[V:3] E4z4z2G2- | 
[V:4] E,3A,,E,2F,2E,4 | 
[V:1] D2F4E2A4 | 
[V:2] B2d2c2e4d2 | 
[V:3] GFD2A3GF4 | 
[V:4] z12 | 
[V:1] G2c2B2A4^G2 | 
[V:2] e4edd2e4 | 
[V:3] c2BAG2A2B4 | 
[V:4] E,3A,,E,2F,2E,4 | 
[V:1] A4z4B3E | 
[V:2] z2A2B2c2d4 | 
[V:3] A3DG2A2G4 | 
[V:4] z12 | 
[V:1] B2c2BGA2G3C | 
[V:2] e4z2d2e4 | 
[V:3] z4z4B4 | 
[V:4] E,3A,,E,2F,2E,4 | 
[V:1] G2A2GEF2E3A, | 
[V:2] E2F2EC2B,CDEF | 
[V:3] c6d2e3d/c/ | 
[V:4] z12 | 
[V:1] E3FECD2E2G2- | 
[V:2] G3AGcA2B2c2 | 
[V:3] B2c2BGA2G2C2- | 
[V:4] E,3A,,E,2F,2E,4 | 
[V:1] GFE2D4C2E2- | 
[V:2] E4F2G2A2c2 | 
[V:3] C2c4B2c3B | 
[V:4] z12 | 
[V:1] EFGAG2c3BG2 | 
[V:2] BEBcB2A2e4 | 
[V:3] G2z2E2A2G2c2- | 
[V:4] E,3A,,E,2F,2E,4 | 
[V:1] A3GFEE4D2 | 
[V:2] e2c4B4A2 | 
[V:3] cBA4G2F4 | 
[V:4] z12 | 
[V:1] E12 ||  
[V:2] B12 ||  
[V:3] E12 ||  
[V:4] [E,12G,12] ||  
[V:1]  [K:C] [K:clef=treble][M:2/1]z8 | 
[V:2]  [K:C] [K:clef=treble-8][M:2/1]B8- | 
[V:3]  [K:C] [K:clef=treble-8][M:2/1]E8 | 
[V:4]  [K:C] [K:clef=bass][M:2/1]z8 | 
[V:1] B8- | 
[V:2] B4E4 | 
[V:3] E8 | 
[V:4] z8 | 
[V:1] B4E4 | 
[V:2] B4c4 | 
[V:3] z8 | 
[V:4] E,8- | 
[V:1] B4c4 | 
[V:2] B4e4- | 
[V:3] z8 | 
[V:4] E,4A,,4 | 
[V:1] B2c4BA | 
[V:2] e2dcd4 | 
[V:3] z8 | 
[V:4] E,4F,4 | 
[V:1] G4z2G2- | 
[V:2] e4E4 | 
[V:3] B8- | 
[V:4] E,8 | 
[V:1] G2D2G4 | 
[V:2] G3AB4 | 
[V:3] B4E4 | 
[V:4] z8 | 
[V:1] E3FG2A2 | 
[V:2] G4C4 | 
[V:3] B4c4 | 
[V:4] E,8- | 
[V:1] G4CDEF | 
[V:2] z2G2A4 | 
[V:3] B4c4 | 
[V:4] E,4A,,4 | 
[V:1] G4A4- | 
[V:2] B2e4d2 | 
[V:3] B4A4 | 
[V:4] E,4F,4 | 
[V:1] A2^G^FG4 | 
[V:2] e4z2e2 | 
[V:3] B8 | 
[V:4] E,8 | 
[V:1] A8 | 
[V:2] f2e4dc | 
[V:3] A8 | 
[V:4] z8 | 
[V:1] z8 | 
[V:2] B4G2c2 | 
[V:3] G3AB2A2- | 
[V:4] E,8- | 
[V:1] z8 | 
[V:2] B4c2A2 | 
[V:3] A2^G2A2c2- | 
[V:4] E,4A,,4 | 
[V:1] z8 | 
[V:2] G4z4 | 
[V:3] c2B2A2c2- | 
[V:4] E,4F,4 | 
[V:1] z4B4- | 
[V:2] z8 | 
[V:3] c2BAG4 | 
[V:4] E,8 | 
[V:1] B2E2B2c2- | 
[V:2] z8 | 
[V:3] z2c2d2e2- | 
[V:4] z8 | 
[V:1] c2BAG2A2- | 
[V:2] z4e4- | 
[V:3] e2dcB2c2 | 
[V:4] E,8- | 
[V:1] A2^G2A4 | 
[V:2] e4e4 | 
[V:3] B4A4 | 
[V:4] E,4A,,4 | 
[V:1] z4A4 | 
[V:2] B4d4- | 
[V:3] G2FED4 | 
[V:4] E,4F,4 | 
[V:1] G8 | 
[V:2] d2cBc4 | 
[V:3] z8 | 
[V:4] E,8 | 
[V:1] F8 | 
[V:2] d8 | 
[V:3] D8 | 
[V:4] z8 | 
[V:1] E3FG2A2 | 
[V:2] B4c4 | 
[V:3] E4C4 | 
[V:4] E,8- | 
[V:1] G4c4 | 
[V:2] B4A4 | 
[V:3] G4A4 | 
[V:4] E,4A,,4 | 
[V:1] B2G2A4 | 
[V:2] z8 | 
[V:3] G4c3A | 
[V:4] E,4F,4 | 
[V:1] G4z2E2- | 
[V:2] E4G3A | 
[V:3] B4z2B2 | 
[V:4] E,8 | 
[V:1] E2DCB,4 | 
[V:2] B2A4^G2 | 
[V:3] E4E4 | 
[V:4] z8 | 
[V:1] A,8 ||  
[V:2] A8 ||  
[V:3] F3EE4 ||  
[V:4] A,,8 ||  
[V:1]  [K:C] [K:clef=treble][M:3/1]B,6B,2B,4 | 
[V:2]  [K:C] [K:clef=treble-8][M:3/1]d4G2d4d2 | 
[V:3]  [K:C] [K:clef=treble-8][M:3/1]G3FE2D2G4 | 
[V:4]  [K:C] [K:clef=bass][M:3/1]G,,6G,,2G,,4 | 
[V:1] C3DE2F2D4 | 
[V:2] e3dc2d2G2d2 | 
[V:3] C4G2A2B4 | 
[V:4] G,3F,E,2D,2G,4 | 
[V:1] C4z2G2c3B | 
[V:2] e6e2e4 | 
[V:3] c3BA2G2A2G2 | 
[V:4] C,6C,2C,4 | 
[V:1] A2G2A2B2E4 | 
[V:2] z2e2d2e2g4 | 
[V:3] F2E2F2E2C4 | 
[V:4] C3B,A,2G,2C4 | 
[V:1] A8F2G2 | 
[V:2] f3ed2c2d2e2 | 
[V:3] c4A4z4 | 
[V:4] F,8z4 | 
[V:1] C4z4z4 | 
[V:2] f6e3dcB | 
[V:3] c4B2c3BG2 | 
[V:4] F,3E,D,2C,2E,4 | 
[V:1] E3DCB,A,2z2A2- | 
[V:2] c4z2c2A4 | 
[V:3] A2A3GFEF2E2 | 
[V:4] A,,6A,,2A,,4 | 
[V:1] AGFEA2G3EF2 | 
[V:2] c4z4d4 | 
[V:3] F2C2D2G2D4 | 
[V:4] A,3G,F,2E,2A,4 | 
[V:1] G3FE2D2G,3A, | 
[V:2] c2B2c2d2z2e2 | 
[V:3] z2G3AB4c2 | 
[V:4] E,3D,C,2B,,2E,4 | 
[V:1] B,CD4E2FEDC | 
[V:2] f2d4c2A4 | 
[V:3] F4G2A2^F3E | 
[V:4] D,3C,B,,2A,,2D,4 | 
[V:1] B,8z4 | 
[V:2] d4e4d2e2- | 
[V:3] G6E2B4 | 
[V:4] G,,4G,6E,2 | 
[V:1] B6G2G4 | 
[V:2] e2e2e8 | 
[V:3] G4E4C4 | 
[V:4] E,4B,4C4 | 
[V:1] c4B2A4^G2 | 
[V:2] f3ed3cB4 | 
[V:3] z4D4E4 | 
[V:4] F,4z4z4 | 
[V:1] A3GFEF3EC2 | 
[V:2] A3Bc2F2c2A2 | 
[V:3] F3GA8 | 
[V:4] D,4C,2D,2A,,4 | 
[V:1] G4F2E4D2 | 
[V:2] B2c2d2B4A2 | 
[V:3] E4D2E2F4 | 
[V:4] z4z4z2D,2 | 
[V:1] E12- | 
[V:2] c3BAGc2B2A2 | 
[V:3] E12- | 
[V:4] A,,2C,3B,,A,,2G,,2A,,2 | 
[V:1] E12 |]  
[V:2] B12 |]  
[V:3] E12 |]  
[V:4] E,,12 |]  



